X: 126
T:Deninka (Wixman)
O:Bulgaria
M:7/8
L:1/8
Q:1/4=120
K:CPhr
%%MIDI gchord fzzczcz
%%MIDI beatstring fppmpmp
|:"C"=E2F E_DC2|G2A GFF2|=E2F EDC2|[1 =E7-|=E7:|[2 C7-|C7
|:"C"[G,B,][A,2C2] [A,2C2][A,2C2]|"F"c3 [F4A4]|[GB][F2A2] [=E2G2][D2F2]|\
"C"[C7-=E7-]|[C7=E7]:|
|:"F"[F2A2][=EG] [D4-F4-]|[D7F7]|[F2A2][=EG] [D2F2][D2F2]|\
"C"[C3=E3] [C4-E4-]|[C7=E7]:|



